X:23008
T:Winster Processional
R:March
C:Trad.
O:England
M:4/4
L:1/4
Q:1/4=160
K:G
"G"gd "D7"de/2f/2|"G"gd "D7"de/2f/2|"G"gd "D7"dc|"G"B2 G2:|
|:"C"ce ed/2c/2|"G"Bd dc/2B/2|"D7"A3/2B/2 cd|"G"B2 "G7"G2:|

